src/images/global/icons/action/conversation-fill.svg

<?xml version="1.0" encoding="UTF-8"?>
<svg width="48px" height="48px" viewBox="0 0 48 48" version="1.1" xmlns="http://www.w3.org/2000/svg" xmlns:xlink="http://www.w3.org/1999/xlink">
    <!-- Generator: Sketch 46.2 (44496) - http://www.bohemiancoding.com/sketch -->
    <title>icon/Action/conversation-fill</title>
    <desc>Created with Sketch.</desc>
    <defs>
        <path d="M23.7246501,0 L2.92506238,0 C1.31222618,0 1.77635684e-15,1.19194312 1.77635684e-15,2.65703986 L1.77635684e-15,11.5623908 C1.77635684e-15,13.1661511 1.25744161,14.3755184 2.92506238,14.3755184 L13.2765265,14.3755184 C13.3069021,14.3894995 13.3583237,14.4182965 13.4197258,14.4619093 L19.2120284,19.8249229 C19.335809,19.939589 19.498427,20 19.6635401,20 C19.7494597,20 19.8361386,19.9837235 19.9182612,19.9500227 C20.1584455,19.8517375 20.3143375,19.6250137 20.3143375,19.3739795 L20.3143375,14.5306672 C20.3143375,14.4580488 20.3364683,14.403272 20.3532833,14.3755184 L23.0750461,14.3755184 C23.0876303,14.3755184 23.1002145,14.3752054 23.1129071,14.3744751 C24.7121828,14.2849541 26,12.7628895 26,11.5623908 L26,2.5007434 C26,0.935379029 24.8431233,0 23.7246501,0 L23.7246501,0 Z M6.55776789,8.70262459 C5.7067085,8.70262459 5.01685679,8.03925149 5.01685679,7.22072963 C5.01685679,6.4023121 5.7067085,5.738939 6.55776789,5.738939 C7.4087188,5.738939 8.09857051,6.4023121 8.09857051,7.22072963 C8.09857051,8.03925149 7.4087188,8.70262459 6.55776789,8.70262459 L6.55776789,8.70262459 Z M13,8.70262459 C12.1490491,8.70262459 11.4591974,8.03925149 11.4591974,7.22072963 C11.4591974,6.4023121 12.1490491,5.738939 13,5.738939 C13.8510594,5.738939 14.5408026,6.4023121 14.5408026,7.22072963 C14.5408026,8.03914715 13.8510594,8.70262459 13,8.70262459 L13,8.70262459 Z M19.4423406,8.70262459 C18.5913897,8.70262459 17.901538,8.03925149 17.901538,7.22072963 C17.901538,6.4023121 18.5913897,5.738939 19.4423406,5.738939 C20.2934,5.738939 20.9831432,6.4023121 20.9831432,7.22072963 C20.9831432,8.03914715 20.2932915,8.70262459 19.4423406,8.70262459 L19.4423406,8.70262459 Z" id="path-1"></path>
    </defs>
    <g id="Symbols" stroke="none" stroke-width="1" fill="none" fill-rule="evenodd">
        <g id="icon/Action/conversation-fill">
            <g id="Icon" transform="translate(11.000000, 14.000000)">
                <mask id="mask-2" fill="white">
                    <use xlink:href="#path-1"></use>
                </mask>
                <use id="Mask" fill="#384048" xlink:href="#path-1"></use>
                <g id="Color/Grayscale/Night-Sky" mask="url(#mask-2)" fill="#111111">
                    <g transform="translate(-11.000000, -14.000000)" id="Swatch">
                        <rect x="0" y="0" width="48" height="48"></rect>
                    </g>
                </g>
            </g>
        </g>
    </g>
</svg>

<?xml version="1.0" encoding="utf-8"?>
<!-- Generator: Adobe Illustrator 21.0.2, SVG Export Plug-In . SVG Version: 6.00 Build 0)  -->
<svg version="1.1" id="action-conversation-fill-Layer_1" xmlns="http://www.w3.org/2000/svg" xmlns:xlink="http://www.w3.org/1999/xlink" x="0px" y="0px"
	 viewBox="0 0 48 48" style="enable-background:new 0 0 48 48;" xml:space="preserve">
<title>icon/Action/conversation-fill</title>
<g transform="translate(11 14)">
	<g>
		<path id="action-conversation-fill-a_1_" style="fill:#384048;" d="M23.7,0H2.9C1.3,0,0,1.2,0,2.7v8.9c0,1.6,1.3,2.8,2.9,2.8h10.4c0,0,0.1,0,0.1,0.1
			l5.8,5.4c0.2,0.2,0.5,0.2,0.7,0.1c0.2-0.1,0.4-0.3,0.4-0.6v-4.8c0-0.1,0-0.1,0-0.2h2.7c0,0,0,0,0,0c1.6-0.1,2.9-1.6,2.9-2.8V2.5
			C26,0.9,24.8,0,23.7,0z M6.6,8.7C5.7,8.7,5,8,5,7.2c0-0.8,0.7-1.5,1.5-1.5c0.9,0,1.5,0.7,1.5,1.5C8.1,8,7.4,8.7,6.6,8.7z M13,8.7
			c-0.9,0-1.5-0.7-1.5-1.5c0-0.8,0.7-1.5,1.5-1.5s1.5,0.7,1.5,1.5C14.5,8,13.9,8.7,13,8.7z M19.4,8.7c-0.9,0-1.5-0.7-1.5-1.5
			c0-0.8,0.7-1.5,1.5-1.5c0.9,0,1.5,0.7,1.5,1.5C21,8,20.3,8.7,19.4,8.7L19.4,8.7z"/>
	</g>
	<defs>
		<filter id="action-conversation-fill-Adobe_OpacityMaskFilter" filterUnits="userSpaceOnUse" x="-11" y="-14" width="48" height="48">
			<feColorMatrix  type="matrix" values="1 0 0 0 0  0 1 0 0 0  0 0 1 0 0  0 0 0 1 0"/>
		</filter>
	</defs>
	<mask maskUnits="userSpaceOnUse" x="-11" y="-14" width="48" height="48" id="action-conversation-fill-b">
		<g style="filter:url(#action-conversation-fill-Adobe_OpacityMaskFilter);">
			<path id="action-conversation-fill-a" style="fill:#FFFFFF;" d="M23.7,0H2.9C1.3,0,0,1.2,0,2.7v8.9c0,1.6,1.3,2.8,2.9,2.8h10.4c0,0,0.1,0,0.1,0.1l5.8,5.4
				c0.2,0.2,0.5,0.2,0.7,0.1c0.2-0.1,0.4-0.3,0.4-0.6v-4.8c0-0.1,0-0.1,0-0.2h2.7c0,0,0,0,0,0c1.6-0.1,2.9-1.6,2.9-2.8V2.5
				C26,0.9,24.8,0,23.7,0z M6.6,8.7C5.7,8.7,5,8,5,7.2c0-0.8,0.7-1.5,1.5-1.5c0.9,0,1.5,0.7,1.5,1.5C8.1,8,7.4,8.7,6.6,8.7z M13,8.7
				c-0.9,0-1.5-0.7-1.5-1.5c0-0.8,0.7-1.5,1.5-1.5s1.5,0.7,1.5,1.5C14.5,8,13.9,8.7,13,8.7z M19.4,8.7c-0.9,0-1.5-0.7-1.5-1.5
				c0-0.8,0.7-1.5,1.5-1.5c0.9,0,1.5,0.7,1.5,1.5C21,8,20.3,8.7,19.4,8.7L19.4,8.7z"/>
		</g>
	</mask>
	<g style="mask:url(#action-conversation-fill-b);">
		<path style="fill:#111111;" d="M-11-14h48v48h-48V-14z"/>
	</g>
</g>
</svg>
